packages/ui-icons/svg/Line/comments-off.svg

<svg viewBox="0 0 1920 1920" version="1.1" xmlns="http://www.w3.org/2000/svg">
    <path d="M853.333333,309.653333 L853.333333,416.426667 L106.666667,416.426667 L106.666667,1459.62667 L372.016412,1459.52878 L371.946667,1706.66667 L701.5892,1459.52878 L1610.24,1459.62667 L1610.24,853.333333 L1716.90667,853.333333 L1716.98189,1566.19545 L737.141594,1566.19545 L265.349746,1920 L265.349746,1566.19545 L0,1566.19545 L0,309.653333 L853.333333,309.653333 Z M1677.01333,0 L1756.86275,79.8494118 L1514.49098,322.221176 L1756.86275,564.705882 L1677.01333,644.555294 L1434.52863,402.183529 L1192.15686,644.555294 L1112.30745,564.705882 L1354.67922,322.221176 L1112.30745,79.8494118 L1192.15686,0 L1434.52863,242.371765 L1677.01333,0 Z" fill-rule="nonzero" stroke="none" stroke-width="1"/>
</svg>

<svg viewBox="0 0 1920 1920" xmlns="http://www.w3.org/2000/svg">
    <path d="M853.333 309.653v106.774H106.667v1043.2l265.35-.098-.07 247.138 329.642-247.138 908.651.098V853.333h106.667l.075 712.862h-979.84L265.35 1920v-353.805H0V309.653h853.333ZM1677.013 0l79.85 79.85-242.373 242.37 242.372 242.485-79.85 79.85-242.484-242.372-242.372 242.371-79.85-79.85 242.372-242.484-242.371-242.37L1192.157 0l242.372 242.372L1677.013 0Z"/>
</svg>
